X: 94
T: Ji de er nana Dzider-nana                          (Name)
L: 1/8
M: 4/4
K: C
G> G E D C D G z [I:setbarnb 1]| 
D> D D CD2z2 | 
G> G E D C D G z | 
D> D D CD2z2 | 
G G E D/ E/ G GG2 | 
G,2>A,2 B, A,D2 | 
D E D B, A B,D2 | 
G,8 |]

@@@ Tune index: 8762
